!!!!SEGMENT: pl-wumfc--n25816_karlowicz-mieczyslaw--w-blasku-ksiezycowym.krn
!!!cenid: 18xx:4250
!!!COM: Karłowicz, Mieczysław
!!!COM-rismID: pe30108288
!!!CDT: 1876/12/11-1909/02/08
!!!CNT: Polish
!!!OTL: W blasku księżycowym
!!!PDT: 1910
!!!AGN:
!!!YEC: Copyright 2022 Narodowy Instytut Fryderyka Chopina (https://polishscores.org)
!!!YEM: License CC-BY-4.0 (https://creativecommons.org/licenses/by/4.0)
!!!SMS-siglum: PL-Wumfc
!!!SMS-shelfmark: N25816
!!!SMS-shelfwork: W
!!!SMS-variant:
!!!SMS-altvar:
!!!NIFC-rismSourceID: 1001176625
!!!NIFC-rismChildID: 1001176625
!!!NIFC-islandoraID: pl-wumfc:8699
!!!URL-pdf-islandora: https://repozytorium.nifc.pl/islandora/object/pl-wumfc:8699/datastream/PDF/view
!!!URL-scan: https://polish.musicsources.pl/pl/lokalizacje/galeria/druki-muzyczne/11934/2 @EN{Scan on Polish Music Sources Website} @PL{Skany w portalu Dziedzictwo Muzyki Polskiej w otwartym dostępie}
!!!IIIF:
!!!ONB-nifc:
!!!AIN: 1 alto 1 piano 2 soprn
!!!key: A-
**kern	**kern	**dynam	**kern	**text	**text	**dynam	**kern	**text	**text	**dynam	**kern	**text	**text	**dynam
*part4	*part4	*	*part3	*	*	*	*part2	*	*	*	*part1	*	*	*
*staff5	*staff4	*staff4/5	*staff3	*	*	*	*staff2	*	*	*	*staff1	*	*	*
*I"Piano.	*I"Piano.	*	*I"Alt.	*	*	*	*I"Sopran II.	*	*	*	*I"Sopran I.	*	*	*
*I'	*I'	*	*I'	*	*	*	*I'	*	*	*	*I'	*	*	*
*Ipiano	*Ipiano	*	*Ialto	*	*	*	*Isoprn	*	*	*	*Isoprn	*	*	*
*ICklav	*ICklav	*	*ICvox	*	*	*	*ICvox	*	*	*	*ICvox	*	*	*
*	*	*	*scale:90%	*	*	*	*scale:90%	*	*	*	*scale:90%	*	*	*
*clefF4	*clefG2	*	*clefG2	*	*	*	*clefG2	*	*	*	*clefG2	*	*	*
*k[b-e-a-d-]	*k[b-e-a-d-]	*	*k[b-e-a-d-]	*	*	*	*k[b-e-a-d-]	*	*	*	*k[b-e-a-d-]	*	*	*
*A-:	*A-:	*	*A-:	*	*	*	*A-:	*	*	*	*A-:	*	*	*
*M6/8	*M6/8	*	*M6/8	*	*	*	*M6/8	*	*	*	*M6/8	*	*	*
=1	=1	=1	=1	=1	=1	=1	=1	=1	=1	=1	=1	=1	=1	=1
.	(8qff/	.	.	.	.	.	.	.	.	.	.	.	.	.
!	!LO:TX:a:B:t=Molto andante.	!LO:DY:rj	!	!	!	!	!	!	!	!	!LO:TX:a:B:t=Molto andante.	!	!	!
8E-\L	(8.aa-L 8.ff 8.dd- 8.b-\)	mf	2.r	.	.	.	2.r	.	.	.	2.r	.	.	.
(8d- 8B-\	.	.	.	.	.	.	.	.	.	.	.	.	.	.
.	16een\K	.	.	.	.	.	.	.	.	.	.	.	.	.
8gJ 8en\)	8ggJ 8dd- 8b-\)	.	.	.	.	.	.	.	.	.	.	.	.	.
.	(8qff/	.	.	.	.	.	.	.	.	.	.	.	.	.
8E-X\L	(8.aa-L 8.ff 8.dd- 8.b-\)	.	.	.	.	.	.	.	.	.	.	.	.	.
(8d- 8B-\	.	.	.	.	.	.	.	.	.	.	.	.	.	.
.	16ee\K	.	.	.	.	.	.	.	.	.	.	.	.	.
8gJ 8en\)	8ggJ 8dd- 8b-\)	.	.	.	.	.	.	.	.	.	.	.	.	.
=2	=2	=2	=2	=2	=2	=2	=2	=2	=2	=2	=2	=2	=2	=2
.	(8qdd-/	.	.	.	.	.	.	.	.	.	.	.	.	.
!	!	!LO:HP:t=dim.	!	!	!	!	!	!	!	!	!	!	!	!
8E-\L	(8.ffL 8.dd- 8.b- 8.g\)	>	2.r	.	.	.	2.r	.	.	.	2.r	.	.	.
(8f 8d-\	.	.	.	.	.	.	.	.	.	.	.	.	.	.
.	16dd-\K	.	.	.	.	.	.	.	.	.	.	.	.	.
8d-J 8B-\)	8eenJ 8b- 8g\)	.	.	.	.	.	.	.	.	.	.	.	.	.
.	(8qdd-/	.	.	.	.	.	.	.	.	.	.	.	.	.
!	!LO:TX:b:i:t=rit.	!	!LO:TX:a:i:t=rit.	!	!	!	!LO:TX:a:i:t=rit.	!	!	!	!LO:TX:a:i:t=rit.	!	!	!
8E-\L	(8.ffL 8.dd- 8.b- 8.g\)	.	.	.	.	.	.	.	.	.	.	.	.	.
(8f 8d-\	.	.	.	.	.	.	.	.	.	.	.	.	.	.
.	16dd-\L	.	.	.	.	.	.	.	.	.	.	.	.	.
16d-L 16B-\	16ee-X 16b- 16g\	.	.	.	.	.	.	.	.	.	.	.	.	.
16E-\JJ)	16b-X\JJ)	.	.	.	.	.	.	.	.	.	.	.	.	.
=3	=3	=3	=3	=3	=3	=3	=3	=3	=3	=3	=3	=3	=3	=3
*	*^	*	*	*	*	*	*	*	*	*	*	*	*	*
!	!	!	!LO:DY:t=p a tempo	!	!	!	!LO:DY:t=p a tempo	!	!	!	!LO:DY:t=p a tempo	!	!	!	!LO:DY:t=p a tempo
8AA-\L	4ee- 4cc 4e-/	4.ryy	p	4a-/	To-	Tram-	p	4cc\	To-	Traum-	p	4ee-\	To-	Traum-	p
(8c 8E-\	.	.	.	.	.	.	.	.	.	.	.	.	.	.	.
8A-\J)	8ee- 8cc 8e-/	.	.	8a-/	-wa-	-ge-	.	8cc\	-wa-	-ge-	.	8ee-\	-wa-	-ge-	.
8AA-\L	8ff-XL 8cc-X/	4f-X\	.	8a-/	-rzy-	-sel-	.	8cc-X\	-rzy-	-sel-	.	8ff-X\	-rzy-	-sel-	.
(8c-X 8F-X\	8cc-/	.	.	8a-/	-szu	-le,	.	8cc-\	-szu	-le,	.	8cc-X\	-szu	-le,	.
8A-\J)	8dd-J 8cc-/	8f-\	.	8f-X/	pół-	du	.	8cc-\	pół-	du	.	8dd-\	pół-	du	.
!!LO:LB:g=original
=4	=4	=4	=4	=4	=4	=4	=4	=4	=4	=4	=4	=4	=4	=4	=4
8AA-\L	4ee- 4e-/	8ccn\L	.	(8e-/L	-sen-	lich-	.	(8ccn\L	-sen-	lich-	.	4ee-\	-sen-	lich-	.
(8c 8E-\	.	8b-\J	.	8b-/J)	.	.	.	8b-\J)	.	.	.	.	.	.	.
8A-\J)	8ee- 8cc 8a- 8e-/	2ryy	.	8cc\	-nych	-ter	.	8a-/	-nych	-ter	.	8ee-\	-nych	-ter	.
8FF\L	4aa- 4ff 4cc 4a-\	.	.	(8a-/L	mar,	Mond,	.	(4cc\	mar,	Mond,	.	(4ffn\	mar,	Mond,	.
(8c 8A-\	.	.	.	8fn/	.	.	.	.	.	.	.	.	.	.	.
8F\J)	8cc 8a- 8e-/	.	.	8e-/J)	.	.	.	8a-/)	.	.	.	8ccn\)	.	.	.
=5	=5	=5	=5	=5	=5	=5	=5	=5	=5	=5	=5	=5	=5	=5	=5
*^	*	*	*	*	*	*	*	*	*	*	*	*	*	*	*
8r	4F-X\	4dd- 4a- 4d-/	4.ryy	.	4d-/	Pły-	Im-	.	4a-/	Pły-	Im-	.	4dd-\	Pły-	Im-	.
[4A-/	.	.	.	.	.	.	.	.	.	.	.	.	.	.	.	.
.	8E-\	8cc 8a- 8e-/	.	.	8e-/	-niesz,	-mer	.	8a-/	-niesz,	-mer	.	8cc\	-niesz,	-mer	.
8A-/]	4D-\	8b-/L	4a- 4fn\	.	8a-/	jas-	wan-	.	8f/	jas-	wan-	.	8b-\	jas-	wan-	.
[4A-/	.	8cc/	.	.	8a-/	-ny	-delst	.	8f/	-ny	-delst	.	8cc\	-ny	-delst	.
.	8C\	8a-/J	8f 8e-\	.	8e-/	mie-	du	.	8f/	mie-	du	.	8a-/	mie-	du	.
=6	=6	=6	=6	=6	=6	=6	=6	=6	=6	=6	=6	=6	=6	=6	=6	=6
8A-/]	4BB-\	8ee-L 8e-/	4a- 4f\	.	(8e-/L	-sią-	still	.	4f/	-sią-	still	.	4a-/	-sią-	still	.
4A-/	.	(<8dd- 8d-/	.	.	8d-/J)	.	.	.	.	.	.	.	.	.	.	.
.	8BB-\	8fJ 8d-/)	2ryy	.	8B-/	-cu	die	.	8a-/	-cu	di	.	8cc\	-cu	die	.
4E- 4EE-/	4.ryy	16g 16e- 16d-/	.	.	4e-/	w_świat;	Bahn;	.	4g/	w_świat;	Bahn,	.	4b-\	w_świat;	Bahn;	.
.	.	16fffLL 16ddd- 16bb- 16ff\	.	mf	.	.	.	.	.	.	.	.	.	.	.	.
.	.	16ddd- 16bb- 16ff 16dd-\	.	>	.	.	.	.	.	.	.	.	.	.	.	.
.	.	16bb- 16ff 16dd- 16b-\	.	.	.	.	.	.	.	.	.	.	.	.	.	.
8E- 8EE-/	.	16ff 16dd- 16b- 16f\	.	.	8r	.	.	.	8r	.	.	.	8r	.	.	.
.	.	16ff-XJJ 16dd- 16b- 16f-X\	.	]]	.	.	.	.	.	.	.	.	.	.	.	.
*v	*v	*	*	*	*	*	*	*	*	*	*	*	*	*	*	*
*	*v	*v	*	*	*	*	*	*	*	*	*	*	*	*	*
=7	=7	=7	=7	=7	=7	=7	=7	=7	=7	=7	=7	=7	=7	=7
8AA-\L	4ee- 4cc 4e-/	.	4c/	Zie-	Was	.	4a-/	Zie-	Was	.	4ee-\	Zie-	Was	.
(8c 8E-\	.	.	.	.	.	.	.	.	.	.	.	.	.	.
8A-\J)	8ee- 8cc 8e-/	.	8e-/	-mia	hier	.	8cc\	-mia	hier	.	8ee-\	-mia	hier	.
8AA-\L	4.ff-X 4.cc-X 4.f-X 4.dn/	<	8dn/	pi-	un-	<	8cc-X\	pi-	un-	<	8ff-X\	pi-	un-	<
(8c-X 8F-X\	.	.	8d/	-je	-ten	.	8cc-\	-je	-ten	.	8ff-\	-je	-ten	.
8A-\J)	.	.	8d/	twój	auf	.	8cc-\	twój	auf	.	8ff-\	twój	auf	.
!!LO:PB:g=original
=8	=8	=8	=8	=8	=8	=8	=8	=8	=8	=8	=8	=8	=8	=8
*	*^	*	*	*	*	*	*	*	*	*	*	*	*	*
8AA-\L	8ffnL 8fn/	4ddn 4b-\	.	(8dn/L	dziw-	Er-	.	4b-X\	dziw-	Er-	.	(8ffn\L	dziw-	Er-	.
(8dn 8Fn\	8gg 8g/	.	.	8B-/J)	.	.	.	.	.	.	.	8gg\J)	.	.	.
8B-\J)	8ffJ 8f/	8dd 8b-\	.	8d/	-ny	-den	.	8b-\	-ny	-den	.	8ff\	-ny	-den	.
8GG\L	4.bb- 4.b-/	4ff\	.	(4f/	czar,	wohnt,	.	4.b-\	czar,	wohnt,	.	4.b-\	czar,	wohnt,	.
(8f 8B-\	.	.	.	.	.	.	.	.	.	.	.	.	.	.	.
8e-\J)	.	8ee-\	.	8e-/)	.	.	.	.	.	.	.	.	.	.	.
=9	=9	=9	=9	=9	=9	=9	=9	=9	=9	=9	=9	=9	=9	=9	=9
!	!	!	!	!	!	!	!	!	!	!	!	!LO:DY:rj	!	!	!
8FF\L	4.ccc-X 4.aa- 4.ee- 4.cc-X\	4.ryy	mf	4.e-/	Prag-	Möch-	mf	(8a-/L	Prag-	Möch-	mf	4.cc-X\	Prag-	Möck-	mf
(8e- 8A-\	.	.	.	.	.	.	.	8g/	.	.	.	.	.	.	.
8c-X\J)	.	.	.	.	.	.	.	8a-/J	.	.	.	.	.	.	.
8FF-X\L	4bb- 4b-/	4ddn\	.	4dn/	-nąc	-te	.	8.b-\)	.	.	.	(8b-\L	-nąc	-te	.
(8dn 8A-\	.	.	.	.	.	.	.	.	.	.	.	8ddn\J)	.	.	.
.	.	.	.	.	.	.	.	16ccn\	-nąc	-te	.	.	.	.	.
8B-\J)	8aa- 8a-/	8ryy	.	8b-\	u-	so	.	8ddn\	u-	so	.	8aa-\	u-	so	.
=10	=10	=10	=10	=10	=10	=10	=10	=10	=10	=10	=10	=10	=10	=10	=10
!	!	!	!LO:HP:t=dim.	!	!	!	!LO:HP:t=dim.	!	!	!	!LO:HP:t=dim.	!	!	!	!LO:HP:t=dim.
8EE-\L	4aa- 4ff-X 4dd-X 4a-\	4.ryy	>	4b-\	-wie-	gern	>	4dd-X\	-wie-	gern	>	4aa-\	-wie-	gern	>
(8d-X 8A-\	.	.	.	.	.	.	.	.	.	.	.	.	.	.	.
8B-\J)	[8ff- 8dd- 8a- [<8f-X\	.	.	8a-/	-rzyć	dir	.	8dd-\	-rzyć	dir	.	8ff-X\	-rzyć	dir	.
8EE-\L	8ff-]L 8f-/]	4g\	>	4g/	żeś	freund-	>	4b-\	żeś	freund-	>	(8ff-\L	żeś	freund-	>
(8d- 8B-\	8ee- 8e-/	.	.	.	.	.	.	.	.	.	.	8ee-\J)	.	.	.
8E-\J)	8b-/J	8ryy	]]	8e-/	jej	-lich	]	8g/	jej	-lich	]	8b-\	jej	-lich	]
*	*v	*v	*	*	*	*	*	*	*	*	*	*	*	*	*
=11	=11	=11	=11	=11	=11	=11	=11	=11	=11	=11	=11	=11	=11	=11
(16AAA-/LL	[4.ccc [4.aa- [>4.ee- [4.cc\	p	[4.a-/	brat	nahn!	p	[4.a-/	brat	nahn!	p	[4.cc\	brat	nahn!	p
16EE-/	.	.	.	.	.	.	.	.	.	.	.	.	.	.
16AA-/	.	.	.	.	.	.	.	.	.	.	.	.	.	.
16C/	.	.	.	.	.	.	.	.	.	.	.	.	.	.
16E-/	.	.	.	.	.	.	.	.	.	.	.	.	.	.
16A-/JJ)	.	.	.	.	.	.	.	.	.	.	.	.	.	.
8c\	8ccc]L 8aa-] 8ee-] 8cc\]	<	8a-/]	.	.	.	8a-/]	.	.	.	8cc\]	.	.	.
8r	8aa- 8a-\	.	8r	.	.	.	8r	.	.	.	8r	.	.	.
8r	8bb-J 8b-\	.	8r	.	.	.	8r	.	.	.	8r	.	.	.
!!LO:LB:g=original
=12	=12	=12	=12	=12	=12	=12	=12	=12	=12	=12	=12	=12	=12	=12
(16AA-\LL	[4.ccc [4.aa- [>4.een [4.cc\	.	2.r	.	.	.	2.r	.	.	.	2.r	.	.	.
16C\	.	.	.	.	.	.	.	.	.	.	.	.	.	.
16En\	.	.	.	.	.	.	.	.	.	.	.	.	.	.
16A-\	.	.	.	.	.	.	.	.	.	.	.	.	.	.
16c\	.	.	.	.	.	.	.	.	.	.	.	.	.	.
16en\JJ)	.	.	.	.	.	.	.	.	.	.	.	.	.	.
8a-\	8ccc]L 8aa-] 8ee] 8cc\]	.	.	.	.	.	.	.	.	.	.	.	.	.
8r	8aa- 8a-\	.	.	.	.	.	.	.	.	.	.	.	.	.
8r	8bb-J 8b-\	[	.	.	.	.	.	.	.	.	.	.	.	.
=13	=13	=13	=13	=13	=13	=13	=13	=13	=13	=13	=13	=13	=13	=13
(16GG\LL	[4.ccc [4.bb- [>4.een [4.cc\	>	2.r	.	.	.	2.r	.	.	.	2.r	.	.	.
16C\	.	.	.	.	.	.	.	.	.	.	.	.	.	.
16En\	.	.	.	.	.	.	.	.	.	.	.	.	.	.
16B-\	.	.	.	.	.	.	.	.	.	.	.	.	.	.
16c\	.	.	.	.	.	.	.	.	.	.	.	.	.	.
16en\JJ)	.	.	.	.	.	.	.	.	.	.	.	.	.	.
8b-\	4ccc] 4bb-] 4ee] 4cc\]	.	.	.	.	.	.	.	.	.	.	.	.	.
8r	.	.	.	.	.	.	.	.	.	.	.	.	.	.
8r	8ddd- 8dd-\	.	.	.	.	.	.	.	.	.	.	.	.	.
=14	=14	=14	=14	=14	=14	=14	=14	=14	=14	=14	=14	=14	=14	=14
(16GG-X\LL	[4.ccc [4.bb- [>4.een [4.cc\	.	2.r	.	.	.	2.r	.	.	.	2.r	.	.	.
16C\	.	.	.	.	.	.	.	.	.	.	.	.	.	.
16En\	.	.	.	.	.	.	.	.	.	.	.	.	.	.
16B-\	.	.	.	.	.	.	.	.	.	.	.	.	.	.
16c\	.	.	.	.	.	.	.	.	.	.	.	.	.	.
16en\JJ)	.	.	.	.	.	.	.	.	.	.	.	.	.	.
8b-\	4ccc] 4bb-] 4ee] 4cc\]	]	.	.	.	.	.	.	.	.	.	.	.	.
8r	.	.	.	.	.	.	.	.	.	.	.	.	.	.
8r	[8ccc [8cc\	.	.	.	.	.	.	.	.	.	.	.	.	.
=15	=15	=15	=15	=15	=15	=15	=15	=15	=15	=15	=15	=15	=15	=15
*^	*^	*	*	*	*	*	*	*	*	*	*	*	*	*
!	!	!LO:TX:a:B:t=Poco più mosso.	!	!	!	!	!	!	!	!	!	!	!LO:TX:a:t=Poco più mosso.	!	!	!
4F 4FF/	4.ryy	16ccc]LL 16cc\]	4.ryy	p	8cc\	Gór-	Rau-	p	2.r	.	.	.	2.r	.	.	.
.	.	16aa- 16ff'\	.	.	.	.	.	.	.	.	.	.	.	.	.	.
.	.	16bb- 16een'\	.	.	8b-\	-skie	-schen-	.	.	.	.	.	.	.	.	.
.	.	16gg 16dd-'\	.	.	.	.	.	.	.	.	.	.	.	.	.	.
8c\	.	16aa- 16cc'\	.	.	8a-/	po-	-de	.	.	.	.	.	.	.	.	.
.	.	16ffJJ 16a-'\	.	.	.	.	.	.	.	.	.	.	.	.	.	.
16r	4.F\	(4ee/	4.g\	.	8.g/	-to-	Brünn-	.	.	.	.	.	.	.	.	.
(16B-/LL	.	.	.	.	.	.	.	.	.	.	.	.	.	.	.	.
16G/	.	.	.	.	.	.	.	.	.	.	.	.	.	.	.	.
16c/	.	.	.	.	16a-/	-ki	-lein,	.	.	.	.	.	.	.	.	.
16B-/	.	16dd-/LL	.	.	16b-\	szem-	durch	.	.	.	.	.	.	.	.	.
16en/JJ)	.	16cc/JJ)	.	.	16cc\	-rząc	die	.	.	.	.	.	.	.	.	.
!!LO:LB:g=original
=16	=16	=16	=16	=16	=16	=16	=16	=16	=16	=16	=16	=16	=16	=16	=16	=16
4F\	4.ryy	16a-/	4.ryy	.	4a-/	mkną,	Nacht	.	2.r	.	.	.	8ff\	Gór-	Rau-	p
.	.	16ffLL 16a-'\	.	.	.	.	.	.	.	.	.	.	.	.	.	.
.	.	16aa- 16cc'\	.	.	.	.	.	.	.	.	.	.	8ee-\	-skie	-schen-	.
.	.	16gg 16b-'\	.	.	.	.	.	.	.	.	.	.	.	.	.	.
8c\	.	16ff 16a-'\	.	.	8r	.	.	.	.	.	.	.	8dd-\	po-	-de	.
.	.	16dd-JJ 16f'\	.	.	.	.	.	.	.	.	.	.	.	.	.	.
16r	4.E-\	(4cc/	8r	.	4a-/	Drga	seh-	.	.	.	.	.	8.cc\	-to-	Brünn-	.
(16A-/LL	.	.	.	.	.	.	.	.	.	.	.	.	.	.	.	.
16c/	.	.	4f\	.	.	.	.	.	.	.	.	.	.	.	.	.
16F/	.	.	.	.	.	.	.	.	.	.	.	.	16dd-\	-ki	-lein,	.
16A-/	.	16b-/LL	.	.	8f/	w_nich	-nend	.	.	.	.	.	16ee-\	szem-	durch	.
16c/JJ)	.	16a-/JJ	.	.	.	.	.	.	.	.	.	.	16ff\	-rząc	di	.
=17	=17	=17	=17	=17	=17	=17	=17	=17	=17	=17	=17	=17	=17	=17	=17	=17
8r	4.D-\	16b-LL 16f\)	2ryy	<	8f/	sre-	flü-	<	8b-\	Gór-	Rau-	p	4b-\	mkną,	Nacht	.
.	.	(16f\	.	.	.	.	.	.	.	.	.	.	.	.	.	.
8B-/L	.	16b-\	.	.	8B-/	-brem	-stern	.	8g/	-skie	-schen-	.	.	.	.	.
.	.	16dd-\	.	.	.	.	.	.	.	.	.	.	.	.	.	.
8BnJ 8G/	.	16ff\	.	.	8Bn/	twój	sie	.	8f/	po-	-de	.	8r	.	.	.
.	.	16bbn\JJ)	.	.	.	.	.	.	.	.	.	.	.	.	.	.
(16C\LL	4.ryy	4ccc 4een 4cc\	.	.	4c/	ci-	oh-	.	8.en/	-to-	Brünn-	<	8r	.	.	.
16G\	.	.	.	.	.	.	.	.	.	.	.	.	.	.	.	.
16en\	.	.	8ryy	.	.	.	.	.	.	.	.	.	8g/	Drga	seh-	<
16c\	.	.	.	.	.	.	.	.	16f/	-ki	-lein,	.	.	.	.	.
16BB-\	.	(16ggLL 16g/	8cc\	.	8c/	-chy	-ne	[[	16g/	szem-	durch	.	8cc\	w_nich	-nend	[
16C\JJ)	.	16aa-JJ 16a-/)	.	[	.	.	.	.	16a-/	-rząc	die	[[	.	.	.	.
*v	*v	*	*	*	*	*	*	*	*	*	*	*	*	*	*	*
*	*v	*v	*	*	*	*	*	*	*	*	*	*	*	*	*
=18	=18	=18	=18	=18	=18	=18	=18	=18	=18	=18	=18	=18	=18	=18
(16AA-\LL	(8.ffL 8.f\	f	4f/	brzask;	Ruh,	f	4f/	mkną,	Nacht	f	8cc\	sre-	flü-	[ f
16F\J	.	.	.	.	.	.	.	.	.	.	.	.	.	.
8c\)	.	.	.	.	.	.	.	.	.	.	16cc\	-brem	-stern	.
.	16cc\L	.	.	.	.	.	.	.	.	.	16cc\	twój	sie	.
8GG\J	16dd- 16f\	.	8r	.	.	.	8r	.	.	.	16dd-\	ci-	oh-	.
.	16b-\JJ)	.	.	.	.	.	.	.	.	.	16f/	-chy	-ne	.
(16C\LL	(8.a-/L	>	4r	.	.	.	4en/	Drga	seh-	>	(4a-/	brzask;	Ruh,	>
16c\J	.	.	.	.	.	.	.	.	.	.	.	.	.	.
8B-\	.	.	.	.	.	.	.	.	.	.	.	.	.	.
.	16en/L	.	.	.	.	.	.	.	.	.	.	.	.	.
8C\J)	16g/	.	8c/	Bez	und	.	8e/	w_nich	-nend	]	8g/)	.	.	]
.	16c/JJ)	]]	.	.	.	.	.	.	.	.	.	.	.	.
!!LO:PB:g=original
=19	=19	=19	=19	=19	=19	=19	=19	=19	=19	=19	=19	=19	=19	=19
*	*^	*	*	*	*	*	*	*	*	*	*	*	*	*
N(>16AAn\LL	8.g-X/L	4.ryy	mf	4c/	sen-	wo	mf	8e-X/	sre-	flü-	mf	8g-X/	O-	und	mf
16E-\	.	.	.	.	.	.	.	.	.	.	.	.	.	.	.
16G-X\JJ	.	.	.	.	.	.	.	8e-/	-brny	-stern	.	8g-/	-czy	wo	.
16r	16c/L	.	.	.	.	.	.	.	.	.	.	.	.	.	.
8r	16e-/	.	.	8cc\	-ne	ein	.	8e-/	twój	sie	.	8g-/	bez-	ein	.
.	16g-/JJN)<	.	.	.	.	.	.	.	.	.	.	.	.	.	.
(16BB-\LL	(8.f/L	4f\	<	4dd-\	o-	ruh-	<	(8d-/L	ci-	oh-	<	4f/	-sen-	ruh-	<
16F\J	.	.	.	.	.	.	.	.	.	.	.	.	.	.	.
8d-\)	.	.	.	.	.	.	.	8b-/J)	.	.	.	.	.	.	.
.	16dd-/L	.	.	.	.	.	.	.	.	.	.	.	.	.	.
8AA-X\J	16cc/	8f\	.	8cc\	-czy,	-los	.	8f/	-chy	-ne	.	8ff\	-ne,	-los	.
.	16ff/JJ)	.	.	.	.	.	.	.	.	.	.	.	.	.	.
*	*v	*v	*	*	*	*	*	*	*	*	*	*	*	*	*
=20	=20	=20	=20	=20	=20	=20	=20	=20	=20	=20	=20	=20	=20	=20
(16GG\LL	(16een\LL	.	4b-\	zla-	Au-	.	4.gn/	brzask;	Ruh,	.	4.een\	zla-	Au-	.
16C\	16b-\	.	.	.	.	.	.	.	.	.	.	.	.	.
16B-\	16gn\	.	.	.	.	.	.	.	.	.	.	.	.	.
16En\	16b-\	.	.	.	.	.	.	.	.	.	.	.	.	.
16C\	16ee\	.	8b-\	-ne	-ge	.	.	.	.	.	.	.	.	.
16E\JJ)	16b-\JJ)	.	.	.	.	.	.	.	.	.	.	.	.	.
(16FF\LL	(16ff\LL	.	4.a-/	łzą	wacht,	.	8a-/	Bez-	und	.	4.ff\	-ne	-ge	.
16C\	16a-\	.	.	.	.	.	.	.	.	.	.	.	.	.
16F\	16f\	.	.	.	.	.	8b-\	-sen-	wo	.	.	.	.	.
16C\	16a-\	.	.	.	.	.	.	.	.	.	.	.	.	.
16A-\	16ff\	.	.	.	.	.	8cc\	-ne	ein	.	.	.	.	.
16F\JJ)	16a-\JJ)	.	.	.	.	.	.	.	.	.	.	.	.	.
=21	=21	=21	=21	=21	=21	=21	=21	=21	=21	=21	=21	=21	=21	=21
*ped	*	*	*	*	*	*	*	*	*	*	*	*	*	*
16BBB-\LL	8gg-X 8dd- 8b- 8g-X/	f	(4b-\	chło-	wen-	.	4.dd-\	o-	ruh-	.	[4.gg-X\	łzą,	wacht,	.
16BB-\JJ	.	.	.	.	.	.	.	.	.	.	.	.	.	.
16D-/LL	4ryy	.	.	.	.	.	.	.	.	.	.	.	.	.
16G-X/	.	.	.	.	.	.	.	.	.	.	.	.	.	.
16d->/	.	.	8a-/)	.	.	.	.	.	.	.	.	.	.	.
16g-y>/JJ	.	.	.	.	.	.	.	.	.	.	.	.	.	.
8ryy	(16d-\LL	.	4.g-X/	-ną	-det,	.	4.dd-\	-czy,	-los	.	4gg-\]	.	.	.
.	16g-\	.	.	.	.	.	.	.	.	.	.	.	.	.
4ryy	16dd-\JJ	.	.	.	.	.	.	.	.	.	.	.	.	.
.	16gg-/LL	.	.	.	.	.	.	.	.	.	.	.	.	.
.	16ddd-/	.	.	.	.	.	.	.	.	.	8r	.	.	.
*Xped	*	*	*	*	*	*	*	*	*	*	*	*	*	*
.	16ggg-X/JJ)	.	.	.	.	.	.	.	.	.	.	.	.	.
!!LO:LB:g=original
=22	=22	=22	=22	=22	=22	=22	=22	=22	=22	=22	=22	=22	=22	=22
*ped	*	*	*	*	*	*	*	*	*	*	*	*	*	*
N(16BBBn\LL	8fff 8dddn 8aa- 8ff/	.	4.a-/	twój	wen-	.	(4ddn\	zla-	Au-	.	4.ff\	chło-	wen-	.
16BBn\JJ	.	.	.	.	.	.	.	.	.	.	.	.	.	.
16F/LL	4ryy	.	.	.	.	.	.	.	.	.	.	.	.	.
16A-/	.	.	.	.	.	.	.	.	.	.	.	.	.	.
16dn>/	.	.	.	.	.	.	8a-/)	.	.	.	.	.	.	.
16f>/JJ	.	.	.	.	.	.	.	.	.	.	.	.	.	.
8ryy	16a-\LL	.	4a-/	słod-	-det	.	4.f/	-ne	-ge	.	4ff\	-ną	-det	.
.	16ddn\	.	.	.	.	.	.	.	.	.	.	.	.	.
4ryy	16ff\JJ	.	.	.	.	.	.	.	.	.	.	.	.	.
.	16aa-/LL	.	.	.	.	.	.	.	.	.	.	.	.	.
.	16dddn/	.	8a-/	-ki,	es	.	.	.	.	.	8ff\	twój	es	.
*Xped	*	*	*	*	*	*	*	*	*	*	*	*	*	*
.	16fff/JJN)	.	.	.	.	.	.	.	.	.	.	.	.	.
=23	=23	=23	=23	=23	=23	=23	=23	=23	=23	=23	=23	=23	=23	=23
*ped	*	*	*	*	*	*	*	*	*	*	*	*	*	*
N(16CC/LL	8ccc\	.	4.gn/	słod-	dei-	.	4.f/	łzą	wacht,	.	4.cc\	słod-	dei-	.
16C/	.	.	.	.	.	.	.	.	.	.	.	.	.	.
16G/	8ryy	.	.	.	.	.	.	.	.	.	.	.	.	.
16B-/JJ	.	.	.	.	.	.	.	.	.	.	.	.	.	.
8ryy	16c/LL	.	.	.	.	.	.	.	.	.	.	.	.	.
.	16f/JJN)	.	.	.	.	.	.	.	.	.	.	.	.	.
N(>16c>\LL	8cc/	.	4.c/	-ki,	-nem	.	8f/	chło-	wen-	.	4.cc\	-ki,	-nem	.
16g>\	.	.	.	.	.	.	.	.	.	.	.	.	.	.
16b->\JJ	16ryy	.	.	.	.	.	8g/	-ną	-det	.	.	.	.	.
16ryy	16cc/LL	.	.	.	.	.	.	.	.	.	.	.	.	.
8ryy	16ff/	.	.	.	.	.	8f/	twój	es	.	.	.	.	.
*Xped	*	*	*	*	*	*	*	*	*	*	*	*	*	*
.	16ccc/JJN)	.	.	.	.	.	.	.	.	.	.	.	.	.
=24	=24	=24	=24	=24	=24	=24	=24	=24	=24	=24	=24	=24	=24	=24
!	!	!LO:HP:t=dim.	!	!	!	!LO:HP:t=dim.	!	!	!	!LO:HP:t=dim.	!	!	!	!LO:HP:t=dim.
(16CC\LL	4ddd- 4ff 4dd-\	>	4.B-/	rzew-	Blick	>	4f/	słod-	dei-	>	4.dd-\	rzew-	Blick	>
16C\	.	.	.	.	.	.	.	.	.	.	.	.	.	.
16G\	.	.	.	.	.	.	.	.	.	.	.	.	.	.
16B-\	.	.	.	.	.	.	.	.	.	.	.	.	.	.
16d-\	8ff 8dd- 8b- 8f\	.	.	.	.	.	8f/	-ki,	-nem	.	.	.	.	.
16G\JJ)	.	.	.	.	.	.	.	.	.	.	.	.	.	.
8C\L	(16eenLL 16cc 16b-\	.	(8c/L	.	sich	.	(8en/L	rzew-	Blick-	.	4.cc\	-ny	sich	.
.	16en\	.	.	.	.	.	.	.	.	.	.	.	.	.
8B- 8G\	16ddn 16b- 16f\	.	8dn/J)	.	.	.	8f/J)	.	.	.	.	.	.	.
.	16ff\	.	.	.	.	.	.	.	.	.	.	.	.	.
8C\J	16gg 16ee 16b-\	.	8en/	-ny	.	.	8g/	-ny	-sich	.	.	.	.	.
.	16g\JJ)	.	.	.	.	.	.	.	.	.	.	.	.	.
=25	=25	=25	=25	=25	=25	=25	=25	=25	=25	=25	=25	=25	=25	=25
(16FF\LL	[4.aa- [4.ff [>4.cc 4.a-\	mf	[2.f/	blask	zu.	mf	[2.f/	blask	zu.	.	[2.f/	blask	zu.	mf
16C\	.	.	.	.	.	>	.	.	.	>	.	.	.	>
16F\	.	.	.	.	.	.	.	.	.	.	.	.	.	.
16A-\	.	.	.	.	.	.	.	.	.	.	.	.	.	.
16c\	.	.	.	.	.	.	.	.	.	.	.	.	.	.
16f\JJ	.	.	.	.	.	.	.	.	.	.	.	.	.	.
8a-\L)	8aa-]L 8ff] 8cc\]	.	.	.	.	.	.	.	.	.	.	.	.	.
8a- 8c 8F\	8ccc 8aa- 8ff 8cc\	.	.	.	.	.	.	.	.	.	.	.	.	.
8a-J 8c 8F\	8fffJ 8ccc 8aa- 8ff\	.	.	.	.	]]	.	.	.	]]	.	.	.	]]
!!LO:LB:g=original
=26	=26	=26	=26	=26	=26	=26	=26	=26	=26	=26	=26	=26	=26	=26
!	!	!LO:HP:t=dim.	!	!	!	!	!	!	!	!	!	!	!	!
(16FF\LL	[4.aa- [4.ff [>4.cc 4.a-\	>	4f/]	.	.	.	4f/]	.	.	.	4f/]	.	.	.
16C\	.	.	.	.	.	.	.	.	.	.	.	.	.	.
16F\	.	.	.	.	.	.	.	.	.	.	.	.	.	.
16A-\	.	.	.	.	.	.	.	.	.	.	.	.	.	.
16c\	.	.	2r	.	.	.	8r	.	.	.	8r	.	.	.
16f\JJ	.	.	.	.	.	.	.	.	.	.	.	.	.	.
8a-\L)	8aa-]L 8ff] 8cc\]	.	.	.	.	.	4r	.	.	.	4r	.	.	.
8g-X 8c 8A- 8E-\	8ccc 8aa- 8gg-X 8cc\	.	.	.	.	.	.	.	.	.	.	.	.	.
8g-J 8c 8A- 8E-\	8aaa-J 8ccc 8aa- 8gg-\	.	.	.	.	.	8r	.	.	.	8r	.	.	.
=27	=27	=27	=27	=27	=27	=27	=27	=27	=27	=27	=27	=27	=27	=27
*^	*^	*	*	*	*	*	*	*	*	*	*	*	*	*
!	!	!	!	!LO:DY:t=p tranquillo	!	!	!	!	!	!	!	!	!	!	!	!LO:DY:t=p tranquillo
8r	8D-L 8AA- 8DD-\	8fffL 8ddd- 8aa- 8ff/	8r	p	2.r	.	.	.	4r	.	.	.	4ff\	Mo-	Ob	p
4d- 4A-/	8A-\	8a-/	4a- 4f\	.	.	.	.	.	.	.	.	.	.	.	.	.
.	8D-\J	8ff/J	.	.	.	.	.	.	8r	.	.	.	8ff\	-że	in	.
!	!	!	!	!	!	!	!	!	!	!	!	!LO:DY:t=p tranquillo	!	!	!	!
4c/	4.An 4.D-\	4ff/	4.g-X\	.	.	.	.	.	4an/	Mo-	Ob	p	8ff\	w_blas-	sil-	.
.	.	.	.	.	.	.	.	.	.	.	.	.	8ff\	-ku	-ber-	.
8e-/	.	8cc/	.	.	.	.	.	.	8a/	-że	in	.	8cc\	pro-	-ver-	.
=28	=28	=28	=28	=28	=28	=28	=28	=28	=28	=28	=28	=28	=28	=28	=28	=28
!	!	!	!	!	!	!	!	!LO:DY:t=p tranquillo	!	!	!	!	!	!	!	!
8r	8D-L 8BB- 8DD-\	8fffL 8ddd- 8bb- 8ff/	8r	.	4f/	Mo-	Ob	p	8b-\	w_blas-	sil-	.	4dd-\	-mie-	-klär-	.
4d- 4B-/	8B-\	8dd-/	4b- 4f\	.	.	.	.	.	8b-\	-ku	-ber-	.	.	.	.	.
.	8D-\J	8ff/J	.	.	8f/	-że	in	.	8f/	pro-	-ver-	.	8b-\	-ni	-tem	.
4B-/	4.D-\	4aa- 4a- 4g-X/	4dd-\	.	8e-/	w_blas-	sil-	.	4g-X/	-mie-	-klär-	.	4a-/	twych,	Licht	.
.	.	.	.	.	8e-/	-ku	-ber-	.	.	.	.	.	.	.	.	.
8c/	.	8ryy	8ee-\	.	8c/	pro-	-ver-	.	8e-/	-ni	-tem	.	8r	.	.	.
=29	=29	=29	=29	=29	=29	=29	=29	=29	=29	=29	=29	=29	=29	=29	=29	=29
8r	8D-L 8AA- 8DD-\	8fffL 8ddd- 8aa- 8ff/	8r	.	(8.d-/L	-mie-	-klär-	.	4f/	twych,	Licht	.	8r	.	.	.
4d- 4A-/	8A-\	8a-/	4a- 4f\	.	.	.	.	.	.	.	.	.	8ff\	Świt	nicht	.
.	.	.	.	.	16f/Jk)	.	.	.	.	.	.	.	.	.	.	.
.	8D-\J	8ff/J	.	.	8a-/	-ni	-tem	.	8r	.	.	.	8ff\	na-	die	.
4c/	4.An 4.D-\	4ee-/	4.g-X\	.	4.g-X/	twych,	Licht	.	8r	.	.	.	8ee-\	-dzie-	Leuch-	.
.	.	.	.	.	.	.	.	.	8an/	Świt	nicht	.	8ee-\	-i	-te	.
8e-/	.	8cc/	.	.	.	.	.	.	8a/	na-	die	.	8cc\	u-	der	.
!!LO:PB:g=original
=30	=30	=30	=30	=30	=30	=30	=30	=30	=30	=30	=30	=30	=30	=30	=30	=30
8ryy	8D-L 8BB- 8DD-\	8fffL 8ddd- 8bb- 8ff/	8r	.	4f/	świet	nicht	.	8b-\	-dzie-	Leuch-	.	4dd-\	-ro-	Hoff-	.
4d- 4B-/	8B-\	8dd-/	4f\	.	.	.	.	.	8b-\	-i	-te	.	.	.	.	.
.	8D-\J	8b-/J	.	.	8f/	na-	die	.	8f/	u-	der	.	8b-\	-czo	-nung	.
8e-/L	4.D-\	[4.an [4.f/	4.ryy	.	8e-/	-dzie-	Leuch-	.	4f/	-ro-	Hoff-	.	4.an/	lśni?	glimmt,	.
8d-/	.	.	.	.	8d-/	-i	-te	.	.	.	.	.	.	.	.	.
8c-X/J	.	.	.	.	8c-X/	u-	der	.	8f/	-czo	-nung	.	.	.	.	.
*v	*v	*	*	*	*	*	*	*	*	*	*	*	*	*	*	*
=31	=31	=31	=31	=31	=31	=31	=31	=31	=31	=31	=31	=31	=31	=31	=31
!	!LO:TX:a:B:t=Agitato.	!	!	!	!	!	!	!	!	!	!	!LO:TX:a:B:t=Agitato.	!	!	!
(16C\LL	4a] 4f/]	4.ryy	.	(4cn/	-ro-	Hoff-	.	4.f/	lśni?	glimmt,	.	4an/	Mo-	ob	.
16F\	.	.	.	.	.	.	.	.	.	.	.	.	.	.	.
16An\	.	.	.	.	.	.	.	.	.	.	.	.	.	.	.
16c\J	.	.	.	.	.	.	.	.	.	.	.	.	.	.	.
!	!	!	!LO:HP:t=poco a poco cresc.	!	!	!	!LO:HP:t=poco a poco cresc.	!	!	!	!LO:HP:t=poco a poco cresc.	!	!	!	!LO:HP:t=poco a poco cresc.
8dn\J	16f/LL	.	<	8dn/	.	.	<	.	.	.	<	8a/	-że	ein	<
.	16an/JJ	.	.	.	.	.	.	.	.	.	.	.	.	.	.
8en\L	4cc/	8g\L	.	8en/L	.	.	.	(8g/L	Mo-	ob	.	[4.cc\	wró-	Trost,	.
8c\	.	8a\	.	8c/J)	.	.	.	8an/J)	.	.	.	.	.	.	.
8B-\J)	[8cc 8en/	8g\J	.	8B-/	-czo	-nung	.	8g/	-że	ein	.	.	.	.	.
=32	=32	=32	=32	=32	=32	=32	=32	=32	=32	=32	=32	=32	=32	=32	=32
(16An\LL	4cc] 4f/	4ryy	.	8An/	lśni?	glimmt,	.	4f/	wró-	Trost,	.	(8cc\L]	.	.	.
16F\	.	.	.	.	.	.	.	.	.	.	.	.	.	.	.
16C\	.	.	.	8f/	Mo-	ob	.	.	.	.	.	8bn\J)	.	.	.
16AAn\JJ)	.	.	.	.	.	.	.	.	.	.	.	.	.	.	.
8r	(16f/LL	8c\	.	8f/	-że	ein	.	8cc\	-ży	ein	.	8cc\	-ży	ein	.
.	16cc/JJ)	.	.	.	.	.	.	.	.	.	.	.	.	.	.
(16AA-X\LL	4.ddn/	4r	.	4f#X/	wró-	Trost,	.	(8cc\L	ko-	himm-	.	8.ddn\	ko-	himm-	.
16Dn\	.	.	.	.	.	.	.	.	.	.	.	.	.	.	.
16F#X\	.	.	.	.	.	.	.	8bn\J)	.	.	.	.	.	.	.
16c\JJ)	.	.	.	.	.	.	.	.	.	.	.	16dd\	-niec	-li-	.
8r	.	8f# 8d\	.	8f#/	-ży	ein	.	8cc\	-niec	-li-	.	8dd\	juz	-scher,	.
!!LO:LB:g=original
=33	=33	=33	=33	=33	=33	=33	=33	=33	=33	=33	=33	=33	=33	=33	=33
(16GG\LL	8ddnL 8bn/	4.dn\	.	4g/	ko-	himm-	.	(4bn\	złych	-scher,	.	8ddn\	złych	nicht	.
16Dn\	.	.	.	.	.	.	.	.	.	.	.	.	.	.	.
16Bn\	8b 8g/	.	.	.	.	.	.	.	.	.	.	8bn\	I	von	.
16G\	.	.	.	.	.	.	.	.	.	.	.	.	.	.	.
16F#X\	8ccJ 8an/	.	.	8g/	-niec	-li-	.	8an/)	.	nicht	.	8cc\	za-	der	.
16G\JJ)	.	.	.	.	.	.	.	.	.	.	.	.	.	.	.
(16Fn\LL	8.ddL 8.b 8.g 8.d/	4.ryy	.	8g/	złych	-scher,	.	(8b\L	I	von	.	8.dd\	-ra-	See-	.
16B\	.	.	.	.	.	.	.	.	.	.	.	.	.	.	.
16G\	.	.	.	8bn/L	.	nicht	.	8ddn\J)	.	.	.	.	.	.	.
16B\	16eenK 16en/	.	.	.	.	.	.	.	.	.	.	16een\	-nie	-le	.
16dn\	8ffJ 8f/	.	.	8an/J	.	.	.	8dd\	za-	der	.	8ff\	nam	die	.
16B\JJ)	.	.	.	.	.	.	.	.	.	.	.	.	.	.	.
*	*v	*v	*	*	*	*	*	*	*	*	*	*	*	*	*
=34	=34	=34	=34	=34	=34	=34	=34	=34	=34	=34	=34	=34	=34	=34
N(>16En\LL	4gg 4cc 4g\	.	4g/	I	von	.	8een\	-ra-	See-	.	(4.gg\	lep-	Sor-	.
16G\	.	.	.	.	.	.	.	.	.	.	.	.	.	.
16c\	.	.	.	.	.	.	8ddn\	-nie	-le	.	.	.	.	.
16en\JJ	.	.	.	.	.	.	.	.	.	.	.	.	.	.
8r	16g/LL	.	8cc\	za-	der	.	8cc\	nam	die	.	.	.	.	.
.	16cc/JJN)<	.	.	.	.	.	.	.	.	.	.	.	.	.
(16CC\LL	4.gg#X 4.een 4.b-X\	.	8cc\	-ra-	See-	.	4ee\	lep-	Sor-	.	4cc\)	.	.	.
16C\	.	.	.	.	.	.	.	.	.	.	.	.	.	.
16E\	.	.	8b-X\	-nie	-le	.	.	.	.	.	.	.	.	.
16B-X\	.	.	.	.	.	.	.	.	.	.	.	.	.	.
16c\	.	.	8b-\	nam	die	.	8ee\	-szych	-ge	.	8gg#X\	-szych	-ge	.
16e\JJ)	.	.	.	.	.	.	.	.	.	.	.	.	.	.
=35	=35	=35	=35	=35	=35	=35	=35	=35	=35	=35	=35	=35	=35	=35
!	!	!LO:DY:t=ff appassionato	!	!	!	!	!	!	!	!	!	!	!	!LO:DY:rj
N(>32BBn\LLL	8gg#X 8een 8bn\	ff	([4.bn\	lep-	Sor-	ff	4een\	dni?	nimmt.	ff	4gg#X\	dni?	nimmt.	ff
32En\	.	.	.	.	.	.	.	.	.	.	.	.	.	.
32G#X\	.	.	.	.	.	.	.	.	.	.	.	.	.	.
32B\JJJ	.	.	.	.	.	.	.	.	.	.	.	.	.	.
8ryy\	32en\	.	.	.	.	.	.	.	.	.	.	.	.	.
.	32g#X/LLL	.	.	.	.	.	.	.	.	.	.	.	.	.
.	32b/	.	.	.	.	.	.	.	.	.	.	.	.	.
.	32ee/JJN)<	.	.	.	.	.	.	.	.	.	.	.	.	.
8ryy	8gg#^>/J)	.	.	.	.	.	8r	.	.	.	8r	.	.	.
(32AAn\LLL	8gg#/L	.	8b\L]	.	.	.	4r	.	.	.	4r	.	.	.
32BB\	.	.	.	.	.	.	.	.	.	.	.	.	.	.
32D#X\	.	.	.	.	.	.	.	.	.	.	.	.	.	.
32B\JJJ	.	.	.	.	.	.	.	.	.	.	.	.	.	.
!LO:TX:t=P:problem=mixed beam	!	!	!	!	!	!	!	!	!	!	!	!	!	!
32An/LLL	8ff#X/	.	8dd#X\J)	.	.	.	.	.	.	.	.	.	.	.
32B/	.	.	.	.	.	.	.	.	.	.	.	.	.	.
32d#X>\	.	.	.	.	.	.	.	.	.	.	.	.	.	.
32f#X>\JJ)	.	.	.	.	.	.	.	.	.	.	.	.	.	.
8bny>\J	8bbnJ 8dd#X/	.	8cc#X\	-szych	-ge	.	8r	.	.	.	8r	.	.	.
!!LO:LB:g=original
=36	=36	=36	=36	=36	=36	=36	=36	=36	=36	=36	=36	=36	=36	=36
*	*^	*	*	*	*	*	*	*	*	*	*	*	*	*
(32GG#X/LLL	8bbnL 8een 8bn\	4.ryy	.	4bn\	dni?	nimmt.	.	2.r	.	.	.	2.r	.	.	.
32BBn/	.	.	.	.	.	.	.	.	.	.	.	.	.	.	.
32D#X/	.	.	.	.	.	.	.	.	.	.	.	.	.	.	.
32En/JJJ	.	.	.	.	.	.	.	.	.	.	.	.	.	.	.
32G#X\LLL	8.ddd#X 8.dd#X\	.	.	.	.	.	.	.	.	.	.	.	.	.	.
32Bn\	.	.	.	.	.	.	.	.	.	.	.	.	.	.	.
32en\	.	.	.	.	.	.	.	.	.	.	.	.	.	.	.
32B\JJ	.	.	.	.	.	.	.	.	.	.	.	.	.	.	.
8bn\J)	.	.	.	8r	.	.	.	.	.	.	.	.	.	.	.
.	16ccc#XJk 16cc#X\	.	.	.	.	.	.	.	.	.	.	.	.	.	.
(32FF#X\LLL	4.bb 4.b/	8r	.	4r	.	.	.	.	.	.	.	.	.	.	.
32BB\	.	.	.	.	.	.	.	.	.	.	.	.	.	.	.
32An\	.	.	.	.	.	.	.	.	.	.	.	.	.	.	.
32F#X\JJJ	.	.	.	.	.	.	.	.	.	.	.	.	.	.	.
32A\LLL	.	8cc##X\L	.	.	.	.	.	.	.	.	.	.	.	.	.
32B\	.	.	.	.	.	.	.	.	.	.	.	.	.	.	.
32f#X\	.	.	.	.	.	.	.	.	.	.	.	.	.	.	.
32B\JJ	.	.	.	.	.	.	.	.	.	.	.	.	.	.	.
8an\J)	.	8dd#\J	.	8r	.	.	.	.	.	.	.	.	.	.	.
=37	=37	=37	=37	=37	=37	=37	=37	=37	=37	=37	=37	=37	=37	=37	=37
(16Gn\LL	4bb-X 4ee-X 4b-X\	4.ryy	mf	2.r	.	.	.	8r	.	.	.	2.r	.	.	.
16B-X\	.	.	.	.	.	.	.	.	.	.	.	.	.	.	.
16e-X\	.	.	.	.	.	.	.	8e-X/	lep-	von	mf	.	.	.	.
16gn\JJ	.	.	.	.	.	.	.	.	.	.	.	.	.	.	.
16b-X>\LL	8ryy	.	.	.	.	.	.	8gn/	-szych	der	.	.	.	.	.
16ee-X>\JJ)	.	.	.	.	.	.	.	.	.	.	.	.	.	.	.
(16A-X\LL	4.bb- 4.ddn 4.b-/	8r	.	.	.	.	.	8.b-X\	wró-	See-	.	.	.	.	.
16B-\	.	.	.	.	.	.	.	.	.	.	.	.	.	.	.
16dn\	.	8gg\L	.	.	.	.	.	.	.	.	.	.	.	.	.
16g\	.	.	.	.	.	.	.	16b-\	-ży	-le	.	.	.	.	.
16f\	.	8ff\J	.	.	.	.	.	8b-\	za-	die	.	.	.	.	.
16d\JJ)	.	.	.	.	.	.	.	.	.	.	.	.	.	.	.
=38	=38	=38	=38	=38	=38	=38	=38	=38	=38	=38	=38	=38	=38	=38	=38
(16G\LL	8bb-L 8ee- 8b-\	4.ryy	.	2.r	.	.	.	(8ee-\L	-ra-	Sor-	.	2.r	.	.	.
16e-\	.	.	.	.	.	.	.	.	.	.	.	.	.	.	.
16B-\	8.dddn 8.ddn\	.	.	.	.	.	.	8g\J)	.	.	.	.	.	.	.
16g\	.	.	.	.	.	.	.	.	.	.	.	.	.	.	.
16e-\	.	.	.	.	.	.	.	8a-/	-nie	-ge	.	.	.	.	.
16B-\JJ)	16cccJk 16cc\	.	.	.	.	.	.	.	.	.	.	.	.	.	.
(16F\LL	4.bb- 4.dd 4.b-/	4gg\	.	.	.	.	.	4b-\	dni?	nimmt!	.	.	.	.	.
16dn\	.	.	.	.	.	.	.	.	.	.	.	.	.	.	.
16B-\	.	.	.	.	.	.	.	.	.	.	.	.	.	.	.
16a-\	.	.	.	.	.	.	.	.	.	.	.	.	.	.	.
16d\	.	8ff\	.	.	.	.	.	8r	.	.	.	.	.	.	.
16B-\JJ)	.	.	.	.	.	.	.	.	.	.	.	.	.	.	.
*	*v	*v	*	*	*	*	*	*	*	*	*	*	*	*	*
!!LO:PB:g=original
=39	=39	=39	=39	=39	=39	=39	=39	=39	=39	=39	=39	=39	=39	=39
.	(>8qgg/	.	.	.	.	.	.	.	.	.	.	.	.	.
!	!LO:TX:a:i:t=poco a poco rit. al:dur=6q:ext=ud:problem=text with extension lines	!	!LO:TX:a:i:t=poco a poco rit. al:dur=6q:ext=ud:problem=text with extension lines	!	!	!	!LO:TX:a:i:t=poco a poco rit. al:dur=6q:ext=ud:problem=text with extension lines	!	!	!	!LO:TX:a:i:t=poco a poco rit. al:dur=6q:ext=ud:problem=text with extension lines	!	!	!
(16E-\LL	(8.cccL 8.gg 8.ee- 8.dd-X\)	.	2.r	.	.	.	2.r	.	.	.	2.r	.	.	.
16e-\	.	.	.	.	.	.	.	.	.	.	.	.	.	.
16d-X\	.	.	.	.	.	.	.	.	.	.	.	.	.	.
16b-\J	16gg\K	.	.	.	.	.	.	.	.	.	.	.	.	.
8g\J)	8bb-J 8ee- 8dd-\)	.	.	.	.	.	.	.	.	.	.	.	.	.
.	(8qff/	.	.	.	.	.	.	.	.	.	.	.	.	.
(16E-\LL	(8.aa-L 8.ff 8.dd- 8.b-\)	.	.	.	.	.	.	.	.	.	.	.	.	.
16d-\	.	.	.	.	.	.	.	.	.	.	.	.	.	.
16B-\	.	.	.	.	.	.	.	.	.	.	.	.	.	.
16g\J	16een\K	.	.	.	.	.	.	.	.	.	.	.	.	.
8en\J)	8ggJ 8dd- 8b-\)	.	.	.	.	.	.	.	.	.	.	.	.	.
=40	=40	=40	=40	=40	=40	=40	=40	=40	=40	=40	=40	=40	=40	=40
.	(8qdd-/	.	.	.	.	.	.	.	.	.	.	.	.	.
(16E-\LL	(8.ffL 8.dd- 8.b- 8.g\)	.	2.r	.	.	.	2.r	.	.	.	2.r	.	.	.
16d-\	.	.	.	.	.	.	.	.	.	.	.	.	.	.
16f\	.	.	.	.	.	.	.	.	.	.	.	.	.	.
16B-\J	16dd-\K	.	.	.	.	.	.	.	.	.	.	.	.	.
8d-\J)	8eenJ 8b- 8g\)	.	.	.	.	.	.	.	.	.	.	.	.	.
.	(8qdd-/	.	.	.	.	.	.	.	.	.	.	.	.	.
(16E-\LL	(8.ffL 8.dd- 8.b- 8.g\)	.	.	.	.	.	.	.	.	.	.	.	.	.
16d-\	.	.	.	.	.	.	.	.	.	.	.	.	.	.
16f\	.	.	.	.	.	.	.	.	.	.	.	.	.	.
16B-\	16dd-\L	.	.	.	.	.	.	.	.	.	.	.	.	.
16d-\	16ee-X 16g\	.	.	.	.	.	.	.	.	.	.	.	.	.
16E-\JJ)	16bn\JJ)	.	.	.	.	.	.	.	.	.	.	.	.	.
=41	=41	=41	=41	=41	=41	=41	=41	=41	=41	=41	=41	=41	=41	=41
*	*^	*	*	*	*	*	*	*	*	*	*	*	*	*
!	!	!	!	!LO:TX:a:i:t=Tempo I.	!	!	!	!LO:TX:a:i:t=Tempo I.	!	!	!	!LO:TX:a:i:t=Tempo I.	!	!	!
(16AA-\LL	4ee- 4cc 4e-/	4.ryy	p	8a-/	Lecz	A-	p	8cc\	Lecz	A-	p	8ee-\	Lecz	A-	p
!	!LO:TX:b:i:t=Tempo I.	!	!	!	!	!	!	!	!	!	!	!	!	!	!
16F\	.	.	.	.	.	.	.	.	.	.	.	.	.	.	.
16E-\	.	.	.	8a-/	z_wy-	-ber	.	8cc\	z_wy-	-ber	.	8ee-\	z_wy-	-ber	.
16c\	.	.	.	.	.	.	.	.	.	.	.	.	.	.	.
16B-\	8ee- 8cc 8e-/	.	.	8a-/	-so-	du	.	8cc\	-so-	du	.	8ee-\	-so-	du	.
16A-\JJ)	.	.	.	.	.	.	.	.	.	.	.	.	.	.	.
(16AA-\LL	8ff-XL 8cc-X/	4f-X\	.	4a-/	-ko-	wan-	.	4cc-X\	-ko-	wan-	.	(8ff-X\L	-ko-	wan-	.
16F-X\	.	.	.	.	.	.	.	.	.	.	.	.	.	.	.
16c-X\	8cc-/	.	.	.	.	.	.	.	.	.	.	8cc-X\J)	.	.	.
16A-\	.	.	.	.	.	.	.	.	.	.	.	.	.	.	.
16G-X\	8dd-J 8cc-/	8f-\	.	8f-X/	-ści	-delst	.	8cc-\	-ści	-delst	.	8dd-\	-ści	-delst	.
16F-\JJ)	.	.	.	.	.	.	.	.	.	.	.	.	.	.	.
=42	=42	=42	=42	=42	=42	=42	=42	=42	=42	=42	=42	=42	=42	=42	=42
(16AA-\LL	4ee- 4e-/	8ccn\L	.	4e-/	dum-	schwei-	.	(8ccn\L	dum-	schwei-	.	4ee-\	dum-	schwei-	.
16E-\	.	.	.	.	.	.	.	.	.	.	.	.	.	.	.
16cn\	.	8b-\J	.	.	.	.	.	8b-\J)	.	.	.	.	.	.	.
16E-\	.	.	.	.	.	.	.	.	.	.	.	.	.	.	.
16c\	8ee- 8cc 8a- 8e-/	2ryy	.	8cc\	-nej	-gend	.	8a-/	-nej	-gend,	.	8ee-\	-nej	-gend	.
16A-\JJ)	.	.	.	.	.	.	.	.	.	.	.	.	.	.	.
(16FF\LL	4aa- 4ff 4cc 4a-\	.	.	(8a-/L	chmur,	fort	.	(4cc\	chmur,	fort	.	(4ffn\	chmur,	fort	.
16C\	.	.	.	.	.	.	.	.	.	.	.	.	.	.	.
16F\	.	.	.	8fn/	.	.	.	.	.	.	.	.	.	.	.
16c\	.	.	.	.	.	.	.	.	.	.	.	.	.	.	.
16F\	8cc 8a- 8e-/	.	.	8e-/J)	.	.	.	8a-/)	.	.	.	8ccn\)	.	.	.
16A-\JJ)	.	.	.	.	.	.	.	.	.	.	.	.	.	.	.
!!LO:LB:g=original
=43	=43	=43	=43	=43	=43	=43	=43	=43	=43	=43	=43	=43	=43	=43	=43
*^	*	*	*	*	*	*	*	*	*	*	*	*	*	*	*
16r	4F-X\	4dd- 4a- 4d-/	4.ryy	.	8d-/	Nie	ü-	.	8a-/	Nie	ü-	.	8dd-\	Nie	ü-	.
8A-/L	.	.	.	.	.	.	.	.	.	.	.	.	.	.	.	.
.	.	.	.	.	8d-/	wzru-	-ber	.	8a-/	wzru-	-ber	.	8dd-\	wzru-	-ber	.
8A-/	.	.	.	.	.	.	.	.	.	.	.	.	.	.	.	.
.	8E-\	8cc 8a- 8e-/	.	.	8e-/	-sza	des	.	8a-/	-sza	des	.	8cc\	-sza	des	.
16A-/Jk	.	.	.	.	.	.	.	.	.	.	.	.	.	.	.	.
16r	4D-\	8b-/L	4a- 4fn\	.	4a-/	cie-	Men-	.	4f/	cie-	Men-	.	(8b-\L	cie-	Men-	.
8A-/L	.	.	.	.	.	.	.	.	.	.	.	.	.	.	.	.
.	.	8cc/	.	.	.	.	.	.	.	.	.	.	8cc\J)	.	.	.
8A-/	.	.	.	.	.	.	.	.	.	.	.	.	.	.	.	.
.	8C\	8a-/J	8f 8e-\	.	8e-/	-bie	-schen	.	8f/	-bie	-schen	.	8a-/	-bie	-schen	.
16A-/Jk	.	.	.	.	.	.	.	.	.	.	.	.	.	.	.	.
=44	=44	=44	=44	=44	=44	=44	=44	=44	=44	=44	=44	=44	=44	=44	=44	=44
16r	4BB-\	8ee-L 8e-/	4a- 4f\	.	(8e-/L	ludz-	Lust	.	4f/	ludz-	Lust	.	4a-/	ludz-	Lust	.
8A-/L	.	.	.	.	.	.	.	.	.	.	.	.	.	.	.	.
.	.	8dd- 8d-/	.	.	8d-/J)	.	.	.	.	.	.	.	.	.	.	.
8A-/	.	.	.	.	.	.	.	.	.	.	.	.	.	.	.	.
.	8BB-\	8fJ 8d-/	2ryy	.	8B-/	-ki	und	.	8a-/	-ki	und	.	8cc\	-ki	und	.
16A-/Jk	.	.	.	.	.	.	.	.	.	.	.	.	.	.	.	.
8E-/L	4.ryy	16g 16e- 16d-/	.	.	4e-/	żal	Leid,	.	4g/	żal	Leid,	.	4b-\	żal	Leid,	.
.	.	16fffLL 16ddd- 16bb- 16ff\	.	mf >	.	.	.	.	.	.	.	.	.	.	.	.
8EE-/	.	16ddd- 16bb- 16ff 16dd-\	.	.	.	.	.	.	.	.	.	.	.	.	.	.
.	.	16bb- 16ff 16dd- 16b-\	.	.	.	.	.	.	.	.	.	.	.	.	.	.
16E-/L	.	16ff 16dd- 16b- 16f\	.	.	8r	.	.	.	8r	.	.	.	8r	.	.	.
16EE-/JJ	.	16ff-XJJ 16dd- 16b- 16f-X\	.	]	.	.	.	.	.	.	.	.	.	.	.	.
*v	*v	*	*	*	*	*	*	*	*	*	*	*	*	*	*	*
=45	=45	=45	=45	=45	=45	=45	=45	=45	=45	=45	=45	=45	=45	=45	=45
(16AA-\LL	4ee- 4cc 4e-/	4.ryy	p	8c/	Ob-	ü-	p	8a-/	Ob-	ü-	p	8ee-\	Ob-	ü-	p
!	!	!	!LO:HP:t=cresc. poco a poco	!	!	!	!LO:HP:t=cresc. poco a poco	!	!	!	!LO:HP:t=cresc. poco a poco	!	!	!	!LO:HP:t=cresc. poco a poco
16F\	.	.	<	.	.	.	<	.	.	.	<	.	.	.	<
16E-\	.	.	.	8c/	-cym	-ber	.	8a-/	-cym	-ber	.	8ee-\	-cym	-ber	.
16c\	.	.	.	.	.	.	.	.	.	.	.	.	.	.	.
16B-\	8cc 8a- 8e-/	.	.	8c/	ci	ihr	.	8a-/	ci	ihr	.	8ee-\	ci	ihr	.
16A-\JJ)	.	.	.	.	.	.	.	.	.	.	.	.	.	.	.
(16G\LL	8a-/L	4.a- 4.e-\	.	4e-/	ję-	kla-	.	4cc\	ję-	kla-	.	(8aa-\L	ję-	kla-	.
16A-\	.	.	.	.	.	.	.	.	.	.	.	.	.	.	.
16c\	[8cc/	.	.	.	.	.	.	.	.	.	.	8ee-\J)	.	.	.
16A-\	.	.	.	.	.	.	.	.	.	.	.	.	.	.	.
16G\	8ee-J 8cc/]	.	.	8e-/	-ków	-gend	.	8a-/	-ków	-gend	.	8cc\	-ków	-gend	.
16A-\JJ)	.	.	.	.	.	.	.	.	.	.	.	.	.	.	.
*	*v	*v	*	*	*	*	*	*	*	*	*	*	*	*	*
!!LO:LB:g=original
=46	=46	=46	=46	=46	=46	=46	=46	=46	=46	=46	=46	=46	=46	=46
(16F\LL	8ffL 8cc 8a- 8f\	.	4f/	na-	Lie-	.	4a-/	na-	Lie-	.	4cc\	na-	Lie-	.
16A-\	.	.	.	.	.	.	.	.	.	.	.	.	.	.
16c\	8gg 8g\	.	.	.	.	.	.	.	.	.	.	.	.	.
16A-\	.	.	.	.	.	.	.	.	.	.	.	.	.	.
16c\	8aa-J 8a-\	.	8f/	-szych	-bes-	.	8a-/	-szych	-bes-	.	8a-/	-szych	-bes-	.
16f\JJ)	.	.	.	.	.	.	.	.	.	.	.	.	.	.
(16E-\LL	8aa-L 8gg-X 8cc 8a-\	<	4.e-/	chór,	-wort	.	4.g-X/	chór,	-wort	.	4.a-/	chór,	-wort	.
16A-\	.	.	.	.	.	.	.	.	.	.	.	.	.	.
16c\	16bb-L 16b-\	.	.	.	.	.	.	.	.	.	.	.	.	.
16A-\	16ccc 16cc\	.	.	.	.	.	.	.	.	.	.	.	.	.
16g-X\	16ddd- 16dd-\	.	.	.	.	.	.	.	.	.	.	.	.	.
16A-\JJ)	16eee-JJ 16ee-\	[[	.	.	.	.	.	.	.	.	.	.	.	.
=47	=47	=47	=47	=47	=47	=47	=47	=47	=47	=47	=47	=47	=47	=47
(16D-\LL	4fff 4ddd- 4aa- 4ff\	f	4d-/	Mil-	fort	f	(8f/L	Mil-	fort	f	4ff\	Mil-	fort	f
16A-\	.	.	.	.	.	.	.	.	.	.	.	.	.	.
16B-\	.	.	.	.	.	.	8a-/J)	.	.	.	.	.	.	.
16A-\	.	.	.	.	.	.	.	.	.	.	.	.	.	.
16f\	8aaa- 8fff 8ddd- 8aa-\	.	8a-/	-cząc	und	.	8dd-\	-cząc	und	.	8ff\	-cząc	und	.
16d-\JJ)	.	.	.	.	.	.	.	.	.	.	.	.	.	.
(16Dn\LL	8.fff-XL 8.ccc-X 8.aa- 8.ff-X\	.	8a-/	wie-	fort	.	8cc-X\	wie-	fort	.	8ff-X\	wie-	fort	.
16A-\	.	.	.	.	.	.	.	.	.	.	.	.	.	.
16f-X\	.	.	8a-/	-cznie	in	.	8cc-\	-cznie	in	.	8ff-\	-cznie	in	.
16A-\	16ccc-L 16cc-X\	.	.	.	.	.	.	.	.	.	.	.	.	.
16c-X\	16aa- 16a-\	.	8a-/	po-	die	.	8cc-\	po-	die	.	8ff-\	po-	die	.
16D\JJ)	16ff-JJ 16f-X\	.	.	.	.	.	.	.	.	.	.	.	.	.
=48	=48	=48	=48	=48	=48	=48	=48	=48	=48	=48	=48	=48	=48	=48
*	*^	*	*	*	*	*	*	*	*	*	*	*	*	*
!	!	!	!LO:HP:t=dim.	!	!	!	!LO:HP:t=dim.	!	!	!	!LO:HP:t=dim.	!	!	!	!LO:HP:t=dim.
(16E-\LL	[4.ee- 4.b- 4.a-/	4e-\	>	(4a-/	-my-	E-	>	(4.b-\	-my-	E-	>	[4.ee-\	-my-	E-	>
16B-\	.	.	.	.	.	.	.	.	.	.	.	.	.	.	.
16d-\	.	.	.	.	.	.	.	.	.	.	.	.	.	.	.
16E-\	.	.	.	.	.	.	.	.	.	.	.	.	.	.	.
16B-\	.	8e-\	.	8e-/	.	.	.	.	.	.	.	.	.	.	.
16d-\JJ)	.	.	.	.	.	.	.	.	.	.	.	.	.	.	.
16EE-\LL	4ee-/]	4a- 4f\	.	4f/)	.	.	.	4a-/)	.	.	.	4ee-\]	.	.	.
16E-\	.	.	.	.	.	.	.	.	.	.	.	.	.	.	.
16d-\	.	.	.	.	.	.	.	.	.	.	.	.	.	.	.
16B-\	.	.	.	.	.	.	.	.	.	.	.	.	.	.	.
16E-\	8b-/	8g\	.	8g/	-kasz	-wig-	.	8g/	-kasz	-wig-	.	8b-\	-kasz	-wig-	.
16EE-\JJ	.	.	.	.	.	.	.	.	.	.	.	.	.	.	.
*	*v	*v	*	*	*	*	*	*	*	*	*	*	*	*	*
!!LO:PB:g=original
=49	=49	=49	=49	=49	=49	=49	=49	=49	=49	=49	=49	=49	=49	=49
(16AAA-/LL	4.ccc 4.aa- 4.ee- 4.cc\	p	4a-/	w+dal!	-keit.	p	4a-/	w_dal!	-keit.	p	4cc\	w_dal!	-keit.	p
16EE-/	.	.	.	.	.	.	.	.	.	.	.	.	.	.
16AA-/	.	.	.	.	.	.	.	.	.	.	.	.	.	.
16C/	.	.	.	.	.	.	.	.	.	.	.	.	.	.
16E-/	.	.	8r	.	.	.	8r	.	.	.	8r	.	.	.
16A-/JJ)	.	.	.	.	.	.	.	.	.	.	.	.	.	.
(16c\LL	8bb-L 8ee- 8b-\	.	4r	.	.	.	4r	.	.	.	4r	.	.	.
16e-\	.	.	.	.	.	.	.	.	.	.	.	.	.	.
16c\	8aa- 8ee- 8a-\	.	.	.	.	.	.	.	.	.	.	.	.	.
16A-\	.	.	.	.	.	.	.	.	.	.	.	.	.	.
16E-\	8ggJ 8ee- 8g\	.	8r	.	.	.	8r	.	.	.	8r	.	.	.
16C\JJ)	.	.	.	.	.	.	.	.	.	.	.	.	.	.
=50	=50	=50	=50	=50	=50	=50	=50	=50	=50	=50	=50	=50	=50	=50
(16AA-\LL	4gg 4ddn 4cc-X 4g\	<	2.r	.	.	.	2.r	.	.	.	2.r	.	.	.
16Dn\	.	.	.	.	.	.	.	.	.	.	.	.	.	.
16F\	.	.	.	.	.	.	.	.	.	.	.	.	.	.
16D\	.	.	.	.	.	.	.	.	.	.	.	.	.	.
16F\	[8ff [8dd [8cc- [8f\	.	.	.	.	.	.	.	.	.	.	.	.	.
16c-X\JJ)	.	.	.	.	.	.	.	.	.	.	.	.	.	.
(16dn\LL	8ff]L 8dd] 8cc-] 8f\]	.	.	.	.	.	.	.	.	.	.	.	.	.
16c-\	.	.	.	.	.	.	.	.	.	.	.	.	.	.
16F\	8gg 8g\	.	.	.	.	.	.	.	.	.	.	.	.	.
16c-\	.	.	.	.	.	.	.	.	.	.	.	.	.	.
16F\	8aa-J 8a-\	[[	.	.	.	.	.	.	.	.	.	.	.	.
16D\JJ)	.	.	.	.	.	.	.	.	.	.	.	.	.	.
=51	=51	=51	=51	=51	=51	=51	=51	=51	=51	=51	=51	=51	=51	=51
(16AA-\LL	[4.bb- [4.ff [>4.dd-X [4.b-\	mf	2.r	.	.	.	2.r	.	.	.	2.r	.	.	.
16F\	.	.	.	.	.	.	.	.	.	.	.	.	.	.
16D-X\	.	.	.	.	.	.	.	.	.	.	.	.	.	.
16B-\	.	.	.	.	.	.	.	.	.	.	.	.	.	.
16F\	.	.	.	.	.	.	.	.	.	.	.	.	.	.
16B-\JJ)	.	.	.	.	.	.	.	.	.	.	.	.	.	.
(16d-X\LL	8bb-]L 8ff] 8dd-] 8b-\]	.	.	.	.	.	.	.	.	.	.	.	.	.
16B-\	.	.	.	.	.	.	.	.	.	.	.	.	.	.
16F\	8ccc 8cc\	.	.	.	.	.	.	.	.	.	.	.	.	.
16B-\	.	.	.	.	.	.	.	.	.	.	.	.	.	.
16F\	8ddd-J 8dd-\	.	.	.	.	.	.	.	.	.	.	.	.	.
16D-\JJ)	.	.	.	.	.	.	.	.	.	.	.	.	.	.
=52	=52	=52	=52	=52	=52	=52	=52	=52	=52	=52	=52	=52	=52	=52
(16AA-\LL	4fff-X 4bb- 4gg 4ff-X\	.	2.r	.	.	.	2.r	.	.	.	2.r	.	.	.
16F-X\	.	.	.	.	.	.	.	.	.	.	.	.	.	.
16D-\	.	.	.	.	.	.	.	.	.	.	.	.	.	.
16G\	.	.	.	.	.	.	.	.	.	.	.	.	.	.
16F-\	[8gg [8g\	>	.	.	.	.	.	.	.	.	.	.	.	.
16B-\JJ)	.	.	.	.	.	.	.	.	.	.	.	.	.	.
(16d-\LL	8gg]L 8g\]	.	.	.	.	.	.	.	.	.	.	.	.	.
16f-X\	.	.	.	.	.	.	.	.	.	.	.	.	.	.
16d-\	8aa- 8a-\	.	.	.	.	.	.	.	.	.	.	.	.	.
16B-\	.	.	.	.	.	.	.	.	.	.	.	.	.	.
16d-\	8bb-J 8b-\	]]	.	.	.	.	.	.	.	.	.	.	.	.
16G\JJ)	.	.	.	.	.	.	.	.	.	.	.	.	.	.
!!LO:LB:g=original
=53	=53	=53	=53	=53	=53	=53	=53	=53	=53	=53	=53	=53	=53	=53
4e-:: 4c:: 4A-:: 4E-:: 4AA-::\	4eee-:: 4ccc:: 4aa-:: 4ee-::\	.	8a-/	Ob-	Ü-	p	8cc\	Ob-	Ü-	p	8ee-\	Ob-	Ü-	p
.	.	.	8a-/	-cym	-ber	.	8cc\	-cym	-ber	.	8ee-\	-cym	-ber	.
8r	8r	.	8a-/	ci	ihr	.	8cc\	ci	ihr	.	8ee-\	ci	ihr	.
4r	4r	.	(8a-/L	na-	kla-	.	4dd-\	na-	kla-	.	4ee-\	na-	kla-	.
.	.	.	8f/J)	.	.	.	.	.	.	.	.	.	.	.
8r	8r	.	8g/	-szych	-gend	.	8dd-\	-szych	-gend	.	8ee-\	-szych	-gend	.
=54	=54	=54	=54	=54	=54	=54	=54	=54	=54	=54	=54	=54	=54	=54
2.r	2.r	.	4a-/	ję-	Lie-	.	4cc\	ję-	Lie-	.	(8ee-\L	ję-	Lie-	.
.	.	.	.	.	.	.	.	.	.	.	8ff\J)	.	.	.
.	.	.	8a-/	-ków	-bes-	.	8cc\	-ków	-bes-	.	8ee-\	-ków	-bes-	.
.	.	.	(8a-/L	chór,	-wort	.	4.a-/	chór,	-wort	.	4.cc\	chór,	-wort	.
.	.	.	8g/	.	.	.	.	.	.	.	.	.	.	.
.	.	.	8f/J)	.	.	.	.	.	.	.	.	.	.	.
=55	=55	=55	=55	=55	=55	=55	=55	=55	=55	=55	=55	=55	=55	=55
2.r	2.r	.	4f-X/	Mil-	fort	.	4a-/	Mil-	fort	.	4dd-\	Mil-	fort	.
.	.	.	8f-/	-cząc	und	<	8a-/	-cząc	und	<	8dd-\	-cząc	un	<
.	.	.	8e-/	wiecz-	fort	.	8a-/	wiecz-	fort	.	8cc\	wiecz-	fort	.
.	.	.	8e-/	-nie	in	.	8a-/	-nie	in	.	8cc\	-nie	in	.
.	.	.	8dn/	po-	die	[[	8a-/	po-	die	[[	8cc\	po-	die	[[
=56	=56	=56	=56	=56	=56	=56	=56	=56	=56	=56	=56	=56	=56	=56
2.r	2.r	.	[4.e-/	-my-	E-	mf	(4a-/	-my-	E-	mf	(4.ff\	-my-	E-	mf
.	.	.	.	.	.	.	8f/	.	.	.	.	.	.	.
.	.	.	(8e-/L]	.	.	>	8g/L	.	.	>	4ee-\)	.	.	>
.	.	.	8fn/J)	.	.	.	8a-/J)	.	.	.	.	.	.	.
.	.	.	8g/	-kasz	-wig-	]	8b-\	-kasz	-wig-	]	8ee-\	-kasz	-wig-	]
!!LO:LB:g=original
=57	=57	=57	=57	=57	=57	=57	=57	=57	=57	=57	=57	=57	=57	=57
*	*8va	*	*	*	*	*	*	*	*	*	*	*	*	*
(16AAA-/LL	4.cccc 4.aaa- 4.eee- 4.ccc\	pp	4a-/	w_dal!	-keit.	p	4a-/	w_dal!	-keit.	p	4cc\	w_dal!	-keit.	p
16EE-/	.	.	.	.	.	.	.	.	.	.	.	.	.	.
16AA-/	.	.	.	.	.	.	.	.	.	.	.	.	.	.
16C/	.	.	.	.	.	.	.	.	.	.	.	.	.	.
16E-/	.	.	8r	.	.	.	8r	.	.	.	8r	.	.	.
16A-/JJ)	.	.	.	.	.	.	.	.	.	.	.	.	.	.
(16c\LL	8bbb-L 8eee- 8bb-\	.	4r	.	.	.	4r	.	.	.	4r	.	.	.
16e-\	.	.	.	.	.	.	.	.	.	.	.	.	.	.
16a-\	8aaa- 8eee- 8aa-\	.	.	.	.	.	.	.	.	.	.	.	.	.
16e-\	.	.	.	.	.	.	.	.	.	.	.	.	.	.
16c\	8eee-J 8aa- 8ee-\	.	8r	.	.	.	8r	.	.	.	8r	.	.	.
16A-\JJ)	.	.	.	.	.	.	.	.	.	.	.	.	.	.
*	*X8va	*	*	*	*	*	*	*	*	*	*	*	*	*
=58	=58	=58	=58	=58	=58	=58	=58	=58	=58	=58	=58	=58	=58	=58
(16DD-\LL	4.fff-X 4.ddd- 4.aa- 4.ff-X\	.	4r	.	.	.	4r	.	.	.	4r	.	.	.
16AA-\	.	.	.	.	.	.	.	.	.	.	.	.	.	.
16D-\	.	.	.	.	.	.	.	.	.	.	.	.	.	.
16F-X\	.	.	.	.	.	.	.	.	.	.	.	.	.	.
16A-\	.	.	8r	.	.	.	8r	.	.	.	8r	.	.	.
16d-\JJ)	.	.	.	.	.	.	.	.	.	.	.	.	.	.
(16f-X\LL	8aa-L 8dd- 8a-\	.	4a-/	wiecz-	E-	pp	4dd-\	wiecz-	E-	pp	4ff-X\	wiecz-	E-	pp
16d-\	.	.	.	.	.	.	.	.	.	.	.	.	.	.
16A-\	8ddd- 8aa- 8dd-\	.	.	.	.	.	.	.	.	.	.	.	.	.
16F-\	.	.	.	.	.	.	.	.	.	.	.	.	.	.
16D-\	8fff-XJ 8ddd- 8aa- 8ff-X\	.	8a-/	-nie	-wig-	.	8b-\	-nie	-wig-	.	8ff-\	-nie	-wig-	.
16AA-\JJ)	.	.	.	.	.	.	.	.	.	.	.	.	.	.
=59	=59	=59	=59	=59	=59	=59	=59	=59	=59	=59	=59	=59	=59	=59
!	!LO:TX:b:i:t=molto rit.	!	!LO:TX:a:i:t=molto rit.	!	!	!	!LO:TX:a:i:t=molto rit.	!	!	!	!LO:TX:a:i:t=molto rit.	!	!	!
(16AAA-/LL	2.aaa- 2.eee- 2.ccc 2.aa-\	.	[2.a-/	w_dal!	-keit.	.	[2.cc\	w_dal!	-keit.	.	[2.ee-\	w_dal!	-keit.	.
16EE-/	.	.	.	.	.	.	.	.	.	.	.	.	.	.
16AA-/	.	.	.	.	.	.	.	.	.	.	.	.	.	.
16C/	.	.	.	.	.	.	.	.	.	.	.	.	.	.
16E-/	.	.	.	.	.	.	.	.	.	.	.	.	.	.
16A-/JJ	.	.	.	.	.	.	.	.	.	.	.	.	.	.
16c\LL	.	.	.	.	.	.	.	.	.	.	.	.	.	.
16E-\	.	.	.	.	.	.	.	.	.	.	.	.	.	.
16A-\	.	.	.	.	.	.	.	.	.	.	.	.	.	.
16c\	.	.	.	.	.	.	.	.	.	.	.	.	.	.
*clefG2	*	*	*	*	*	*	*	*	*	*	*	*	*	*
16e-\	.	.	.	.	.	.	.	.	.	.	.	.	.	.
16a-\JJ)	.	.	.	.	.	.	.	.	.	.	.	.	.	.
=60	=60	=60	=60	=60	=60	=60	=60	=60	=60	=60	=60	=60	=60	=60
[4.cc:: [4.a-:: [4.e-:: [4.A-::/	[4.aaa-:: [4.eee-:: [>4.ccc:: [4.aa-::\	ppp	4.a-/_	.	.	.	4.cc\_	.	.	.	4.ee-\_	.	.	.
4cc] 4a-] 4e-] 4A-/]	4aaa-] 4eee-] 4ccc] 4aa-\]	.	4a-/]	.	.	.	4cc\]	.	.	.	4ee-\]	.	.	.
8r	8r	.	8r	.	.	.	8r	.	.	.	8r	.	.	.
==	==	==	==	==	==	==	==	==	==	==	==	==	==	==
*-	*-	*-	*-	*-	*-	*-	*-	*-	*-	*-	*-	*-	*-	*-
!!!system-decoration: [vox]{(klav)}
!!!RDF**kern: > = above
!!!RDF**kern: < = below
!!!RDF**kern: N = linked
!!!ENC: Andrzej Gręziak
!!!END: 2022-11-23
!!!ENC: Andrzej Kubiczek
!!!END: 2022-12-08
